build/img/sprite/icon-cancel.svg

<svg width="22" height="22" viewBox="0 0 22 22" fill="none" xmlns="http://www.w3.org/2000/svg">
<path d="M18.1945 18.1945C16.2719 20.117 13.719 21.175 11 21.175C8.281 21.175 5.72808 20.117 3.80555 18.1945C1.88302 16.2719 0.825 13.719 0.825 11C0.825 8.281 1.88302 5.72808 3.80555 3.80555C5.72808 1.88302 8.281 0.825001 11 0.825001C13.719 0.825001 16.2719 1.88302 18.1945 3.80555C20.117 5.72808 21.175 8.281 21.175 11C21.175 13.719 20.117 16.2719 18.1945 18.1945ZM17.1431 4.85691C15.5008 3.21464 13.3189 2.31136 11 2.31136C8.68111 2.31136 6.49918 3.21464 4.85691 4.85691C1.46986 8.24395 1.46986 13.756 4.85691 17.1431C6.49918 18.7854 8.68111 19.6886 11 19.6886C13.3189 19.6886 15.5008 18.7854 17.1431 17.1431C20.5301 13.756 20.5301 8.24395 17.1431 4.85691Z" fill="#E55050" stroke="#E55050" stroke-width="0.35"/>
<path d="M15.0128 15.0128C14.7298 15.2957 14.2745 15.2957 13.9916 15.0128L11 12.0216L8.00841 15.0128C7.72547 15.2957 7.27016 15.2957 6.98722 15.0128C6.70426 14.7299 6.70426 14.2746 6.98722 13.9917L9.97877 11.0005L6.98722 8.00925C6.70426 7.72633 6.70426 7.27103 6.98722 6.9881C7.12488 6.85045 7.31084 6.775 7.49597 6.775C7.67658 6.775 7.86481 6.84373 8.00608 6.98945L10.9963 9.97935L13.9879 6.9881C14.1256 6.85045 14.3115 6.775 14.4967 6.775C14.6819 6.775 14.8662 6.84439 15.0069 6.9896C15.2884 7.27263 15.2879 7.72683 15.0054 8.00925L12.021 11.0003L15.0128 13.9917C15.2957 14.2746 15.2957 14.7299 15.0128 15.0128Z" fill="#E55050" stroke="#E55050" stroke-width="0.45"/>
</svg>

<svg width="22" height="22" fill="none" xmlns="http://www.w3.org/2000/svg"><path d="M18.195 18.195A10.104 10.104 0 0111 21.175a10.104 10.104 0 01-7.194-2.98A10.104 10.104 0 01.825 11c0-2.719 1.058-5.272 2.98-7.194A10.104 10.104 0 0111 .825c2.719 0 5.272 1.058 7.195 2.98A10.104 10.104 0 0121.175 11c0 2.719-1.058 5.272-2.98 7.195zM17.143 4.857A8.631 8.631 0 0011 2.31c-2.319 0-4.5.904-6.143 2.546-3.387 3.387-3.387 8.899 0 12.286A8.631 8.631 0 0011 19.69c2.319 0 4.5-.904 6.143-2.546 3.387-3.387 3.387-8.9 0-12.286z" fill="#E55050" stroke="#E55050" stroke-width=".35"/><path d="M15.013 15.013a.72.72 0 01-1.021 0L11 12.022l-2.992 2.99a.72.72 0 01-1.02 0 .72.72 0 010-1.02L9.977 11l-2.99-2.99a.725.725 0 01.509-1.234.71.71 0 01.51.213l2.99 2.99 2.99-2.99a.725.725 0 01.51-.214c.185 0 .37.07.51.215a.72.72 0 01-.002 1.02L12.021 11l2.992 2.992a.72.72 0 010 1.02z" fill="#E55050" stroke="#E55050" stroke-width=".45"/></svg>
